**kern	**kern	**kern	**kern
*staff3	*staff4	*staff1	*staff2
*clefF4	*clefF4	*clefG2	*clefG2
*k[f#c#]	*k[f#c#]	*k[f#c#]	*k[f#c#]
*M2/4	*M2/4	*M2/4	*M2/4
*D:	*D:	*D:	*D:
=-	=-	=-	=-
2r	8r	8ff#'L	2r
.	8D 8F# 8A 8d	(32ff#LK	.
.	.	16aa'JJ)	.
.	.	32r	.
.	8r	8ee'L	.
.	8G 8A 8c#	(32eeLK	.
.	.	16aa'JJ)	.
.	.	32r	.
=33	=33	=33	=33
2r	8r	8dd'L	2r
.	8F# 8A 8d	(32ddLK	.
.	.	16ddd'JJ)	.
.	.	32r	.
.	8r	8cc'L	.
.	8F# 8A 8c 8d	(32ccLK	.
.	.	16ccc'JJ)	.
.	.	32r	.
=34	=34	=34	=34
2r	8r	8b'L	2r
.	8G 8B 8d	(32bLK	.
.	.	16bb'JJ)	.
.	.	32r	.
.	8r	8cc#'L	.
.	8G 8A 8c# 8e	(32cc#LK	.
.	.	16ccc#'JJ)	.
.	.	32r	.
=35	=35	=35	=35
2r	8r	8dd'L	2r
.	8F# 8A 8d 8f#	(32ddLK	.
.	.	16ddd'JJ)	.
.	.	32r	.
.	4r	8a'L	.
.	.	(32aLK	.
.	.	16aa'JJ)	.
.	.	32r	.
=36	=36	=36	=36
2r	8r	8f#'L	2r
.	8D# 8F# 8A 8B	(32f#LK	.
.	.	16ff#'JJ)	.
.	.	32r	.
.	8r	8ff#'L	.
.	8BB 8D# 8F# 8A	(32ff#LK	.
.	.	16bb'JJ)	.
.	.	32r	.
=37	=37	=37	=37
2r	8r	8e'L	2r
.	8E 8G	(32eLK	.
.	.	16ee'JJ)	.
.	.	32r	.
.	8r	8ee'L	.
.	8AA 8C# 8E 8G	(32eeLK	.
.	.	16aa'JJ)	.
.	.	32r	.
=38	=38	=38	=38
2r	8r	8d'L	2r
.	8D 8F#	(32dLK	.
.	.	16dd'JJ)	.
.	.	32r	.
.	8r	8dd'L	.
.	8BB 8D 8E 8G#	(32ddLK	.
.	.	16ddd'JJ)	.
.	.	32r	.
=39	=39	=39	=39
2r	8r	8a'L	2r
.	8AA 8C# 8E 8A	(32aLK	.
.	.	16aa'JJ)	.
.	.	32r	.
.	8AAA	4r	.
.	8r	.	.
=40:|!|:	=40:|!|:	=40:|!|:	=40:|!|:
*-	*-	*-	*-
